X:61
T:61 The French Dance
C:Welch MS
I:abc2nwc
M:6/8
L:1/8
K:D
A|d2f d2c|B2A B2A|B2c d2B|ABA GFE|d2f d2c|B2A B2A|B2c def|gec|d2:|
z|F2G A2B|AFd AFD|F2G A2B|AFD E3|F2G A2B|AFA AFD|d2e fga|gec d2:|


